X: 40518
T: Tommy Hill's Favourite
R: hornpipe
M: 4/4
K: Dmajor
dAfd ceAF|GFGB AFDA|gefd efdf|efdB ABcA|
dAfd cAAF|GFGB AGFE|DdcB AGFE|D2 CE D2:|
eBef gfga|bgaf gfef|gfaf edfd|efdB ABcA|
dAfd cAAF|GFGB AGFE|DdcB AGFE|D2 CE D2:|

